X: 34
T: DRUMELZIER
C: Andrew Rankine
R: strathspey
B: "The Complete Andrew Rankine Collection of Scottish Country Dance Tunes" p.39 #2
Z: 2017 John Chambers <jc:trillian.mit.edu>
M: C
L: 1/8
K: Bb
D>E |\
"Bb"F>=EF<B d>cd<f | F>=EF<B d2c>d | "F7"e>dc>B A<F [1 c>d | "C7"c>BA>G "F7"F2 :|
[2 "F7"f>e | "Bb"d2B2B2 |] d>e | "Bb"f>ed<c d>c"Bb7"B<A | "Eb"c>BA<G "Bb"F2D>E | "Bb"F>BF<d "C7"c>BA>G |
"F7"A2F2 F2d>e | "Bb"f>ed<c "Bb7"d>cB<A | "Eb"c>BA<G "Bb"F2c>d | "F7"e>dc>B A<F f>e | "Bb"d2B2B2 |]

%%sep 1 1 500

